app/assets/images/heroicons/micro/signal-slash.svg

<svg width="16" height="16" viewBox="0 0 16 16" fill="none" xmlns="http://www.w3.org/2000/svg">
<path d="M3.28033 2.21967C2.98744 1.92678 2.51256 1.92678 2.21967 2.21967C1.92678 2.51256 1.92678 2.98744 2.21967 3.28033L7.00193 8.06259C7.03295 8.56502 7.43498 8.96705 7.93741 8.99807L12.7197 13.7803C13.0126 14.0732 13.4874 14.0732 13.7803 13.7803C14.0732 13.4874 14.0732 13.0126 13.7803 12.7197L8.99807 7.93741C8.96705 7.43498 8.56502 7.03295 8.06259 7.00193L3.28033 2.21967Z" fill="black"/>
<path d="M3.05025 12.9502C0.873058 10.773 0.42986 7.51846 1.72066 4.90264L2.85932 6.0413C2.11257 8.00408 2.52977 10.3084 4.11091 11.8896C4.40381 12.1825 4.40381 12.6573 4.11091 12.9502C3.81802 13.2431 3.34315 13.2431 3.05025 12.9502Z" fill="black"/>
<path d="M5.25996 10.74C4.33993 9.82 3.97925 8.55243 4.17793 7.35991L5.86994 9.05192C5.98183 9.27844 6.13206 9.49082 6.32062 9.67938C6.61351 9.97227 6.61351 10.4471 6.32062 10.74C6.02773 11.0329 5.55285 11.0329 5.25996 10.74Z" fill="black"/>
<path d="M12.9497 3.05072C15.1268 5.22774 15.5701 8.48196 14.2797 11.0977L13.1409 9.95896C13.8873 7.99633 13.4701 5.69235 11.8891 4.11138C11.5962 3.81849 11.5962 3.34362 11.8891 3.05072C12.182 2.75783 12.6569 2.75783 12.9497 3.05072Z" fill="black"/>
<path d="M10.74 5.25996C11.6601 6.18 12.0208 7.44757 11.8221 8.64009L10.1301 6.94808C10.0182 6.72156 9.86794 6.50918 9.67938 6.32062C9.38649 6.02773 9.38649 5.55285 9.67938 5.25996C9.97227 4.96707 10.4471 4.96707 10.74 5.25996Z" fill="black"/>
</svg>

<svg xmlns="http://www.w3.org/2000/svg" viewBox="0 0 16 16" fill="currentColor" aria-hidden="true" data-slot="icon">
  <path d="M3.28 2.22a.75.75 0 0 0-1.06 1.06l4.782 4.783a1 1 0 0 0 .935.935l4.783 4.782a.75.75 0 1 0 1.06-1.06L8.998 7.937a1 1 0 0 0-.935-.935L3.28 2.22ZM3.05 12.95a7.003 7.003 0 0 1-1.33-8.047L2.86 6.04a5.501 5.501 0 0 0 1.25 5.849.75.75 0 1 1-1.06 1.06ZM5.26 10.74a3.87 3.87 0 0 1-1.082-3.38L5.87 9.052c.112.226.262.439.45.627a.75.75 0 1 1-1.06 1.061ZM12.95 3.05a7.003 7.003 0 0 1 1.33 8.048l-1.14-1.139a5.501 5.501 0 0 0-1.25-5.848.75.75 0 0 1 1.06-1.06ZM10.74 5.26a3.87 3.87 0 0 1 1.082 3.38L10.13 6.948a2.372 2.372 0 0 0-.45-.627.75.75 0 0 1 1.06-1.061Z"/>
</svg>
